symbols/web/tap_and_play/materialsymbolsoutlined/tap_and_play_20px.svg

<svg xmlns="http://www.w3.org/2000/svg" height="20" width="20"><path d="M4.167 9.375V2.583q0-.729.51-1.239.511-.511 1.24-.511h8.166q.729 0 1.24.511.51.51.51 1.239v14.834q0 .729-.51 1.239-.511.511-1.24.511h-.354v-1.75h.354v-.771h-.354v-1.75h.354V5.083H5.917v4.292Zm0 9.792v-1.396q.583 0 .989.406t.406.99Zm3.145 0q0-1.313-.916-2.229-.917-.917-2.229-.917v-1.75q2.041 0 3.468 1.427t1.427 3.469Zm3.5 0q0-2.771-1.937-4.709-1.937-1.937-4.708-1.937v-1.75q1.75 0 3.27.656 1.521.656 2.667 1.802t1.802 2.667q.656 1.521.656 3.271Zm3.271-2.521v.771ZM5.917 3.458h8.166v-.875H5.917Zm0-.875v.875-.875Z"/></svg>

<svg xmlns="http://www.w3.org/2000/svg" height="20" width="20"><path d="M4.167 9.375V2.583Q4.167 1.854 4.677 1.344Q5.188 0.833 5.917 0.833H14.083Q14.812 0.833 15.323 1.344Q15.833 1.854 15.833 2.583V17.417Q15.833 18.146 15.323 18.656Q14.812 19.167 14.083 19.167H13.729V17.417H14.083Q14.083 17.417 14.083 17.417Q14.083 17.417 14.083 17.417V16.646H13.729V14.896H14.083V5.083H5.917V9.375ZM4.167 19.167V17.771Q4.75 17.771 5.156 18.177Q5.562 18.583 5.562 19.167ZM7.312 19.167Q7.312 17.854 6.396 16.938Q5.479 16.021 4.167 16.021V14.271Q6.208 14.271 7.635 15.698Q9.062 17.125 9.062 19.167ZM10.812 19.167Q10.812 16.396 8.875 14.458Q6.938 12.521 4.167 12.521V10.771Q5.917 10.771 7.437 11.427Q8.958 12.083 10.104 13.229Q11.25 14.375 11.906 15.896Q12.562 17.417 12.562 19.167ZM14.083 16.646V17.417Q14.083 17.417 14.083 17.417Q14.083 17.417 14.083 17.417ZM5.917 3.458H14.083V2.583Q14.083 2.583 14.083 2.583Q14.083 2.583 14.083 2.583H5.917Q5.917 2.583 5.917 2.583Q5.917 2.583 5.917 2.583ZM5.917 2.583Q5.917 2.583 5.917 2.583Q5.917 2.583 5.917 2.583V3.458V2.583Q5.917 2.583 5.917 2.583Q5.917 2.583 5.917 2.583Z"/></svg>
